packages/core/src/svgs/dweb.svg

<svg width="24" height="24" viewBox="0 0 24 24" fill="none" xmlns="http://www.w3.org/2000/svg">
<g clip-path="url(#clip0_31_9628)">
<path d="M0 0H24V24H0V0Z" fill="#F0F3FA"/>
<path d="M5.14293 11.1429C5.28436 9.94293 5.67007 9.07293 6.34721 8.14293H6.85721C6.13215 8.99024 5.67694 10.035 5.55007 11.1429H5.14293ZM8.69578 6.42864H7.92864C8.88613 5.76104 9.9872 5.32796 11.1429 5.16436V5.5715C10.282 5.70658 9.45283 5.99702 8.69578 6.42864ZM18.4501 11.1429C18.2958 9.92578 18.0044 9.0515 17.2758 8.14293H17.7858C18.4629 9.07293 18.7158 9.94293 18.8572 11.1429H18.4501ZM15.3044 6.42864H16.0715C15.1155 5.75443 14.0145 5.31404 12.8572 5.14293V5.55007C13.6929 5.65293 14.5972 6.03864 15.3044 6.42864ZM7.92864 17.5715C8.88469 18.2457 9.98564 18.6861 11.1429 18.8572V18.4501C10.2808 18.3076 9.45166 18.0099 8.69578 17.5715H7.92864ZM6.34721 15.8572H6.85721C6.12517 14.9937 5.66315 13.9341 5.52864 12.8101H5.11721C5.25864 14.0101 5.67007 14.9272 6.34721 15.8572ZM15.3044 17.5715C14.5972 17.9615 13.6929 18.3429 12.8572 18.4501V18.8572C13.9972 18.7244 15.1715 18.1929 16.0715 17.5715H15.3044ZM17.1429 15.8572H17.6529C18.3246 14.9881 18.7415 13.9495 18.8572 12.8572H18.4501C18.3232 13.9652 17.868 15.0099 17.1429 15.8572ZM7.28578 6.85721H8.14293V7.71436H7.28578V6.85721ZM15.8572 6.85721H16.7144V7.71436H15.8572V6.85721ZM7.28578 16.2858H8.14293V17.1429H7.28578V16.2858ZM4.71436 11.5715H5.5715V12.4286H4.71436V11.5715ZM18.4286 11.5715H19.2858V12.4286H18.4286V11.5715ZM11.5715 19.2858V18.4286H12.4286V19.2858H11.5715ZM11.5715 5.5715V4.71436H12.4286V5.5715H11.5715ZM15.8572 16.2858H16.7144V17.1429H15.8572V16.2858ZM12.4801 9.42864L13.2858 9.70293L11.5201 14.5715L10.7144 14.2972L12.4801 9.42864ZM9.75864 10.2858L7.71436 12.0001L9.75864 13.7144L10.2858 12.9858L9.06436 12.0001L10.2858 11.0144L9.75864 10.2858ZM14.2415 10.2858L16.2858 12.0001L14.2415 13.7144L13.7144 12.9858L14.9358 12.0001L13.7144 11.0144L14.2415 10.2858Z" fill="#4D99F1"/>
</g>
<defs>
<clipPath id="clip0_31_9628">
<rect width="24" height="24" fill="white"/>
</clipPath>
</defs>
</svg>

<svg xmlns="http://www.w3.org/2000/svg" width="24" height="24" fill="none" viewBox="0 0 24 24"><g clip-path="url(#a)"><path fill="#F0F3FA" d="M0 0h24v24H0z"/><path fill="#4D99F1" d="M5.143 11.143c.141-1.2.527-2.07 1.204-3h.51a5.6 5.6 0 0 0-1.307 3zm3.553-4.714h-.767a7.44 7.44 0 0 1 3.214-1.265v.408c-.861.135-1.69.425-2.447.857m9.754 4.714c-.154-1.217-.446-2.091-1.174-3h.51c.677.93.93 1.8 1.071 3zm-3.146-4.714h.768a7.5 7.5 0 0 0-3.215-1.286v.407c.836.103 1.74.489 2.447.879M7.93 17.572a7.5 7.5 0 0 0 3.214 1.285v-.407a7.2 7.2 0 0 1-2.447-.878zm-1.582-1.715h.51A5.77 5.77 0 0 1 5.53 12.81h-.412c.142 1.2.553 2.117 1.23 3.047m8.957 1.715c-.707.39-1.611.77-2.447.878v.407c1.14-.133 2.315-.664 3.215-1.285zm1.839-1.715h.51a5.93 5.93 0 0 0 1.204-3h-.407a5.6 5.6 0 0 1-1.307 3m-9.857-9h.857v.857h-.857zm8.571 0h.857v.857h-.857zm-8.571 9.429h.857v.857h-.857zM4.714 11.57h.857v.858h-.857zm13.715 0h.857v.858h-.857zm-6.857 7.715v-.857h.857v.857zm0-13.715v-.857h.857v.857zm4.285 10.715h.857v.857h-.857zM12.48 9.429l.806.274-1.766 4.869-.806-.275zm-2.721.857L7.714 12l2.045 1.714.527-.728L9.064 12l1.222-.986zm4.483 0L16.285 12l-2.045 1.714-.527-.728L14.936 12l-1.222-.986z"/></g><defs><clipPath id="a"><path fill="#fff" d="M0 0h24v24H0z"/></clipPath></defs></svg>
